img/ellipse-5.svg

<svg fill="none" height="50" viewBox="0 0 72 50" width="72" xmlns="http://www.w3.org/2000/svg"><path d="m25.8682 26.9866c0-.2848-.2309-.5156-.5156-.5156-.2848 0-.5156.2308-.5156.5156zm22.4285-22.4285v-.5156zm-48.057354-.36459c-.2013477.20135-.2013477.52781 0 .72917l3.281244 3.28124c.20135.20135.52781.20135.72916 0 .20136-.20136.20136-.52782 0-.72917l-2.91665-2.91665 2.91665-2.91666c.20136-.20136.20136-.52781 0-.729169-.20135-.201351-.52781-.201351-.72916 0zm48.057354.88018c12.398 0 22.4284 9.82171 22.4284 21.91291h1.0312c0-12.6827-10.5143-22.9441-23.4596-22.9441zm22.4284 21.91291c0 12.0911-10.0304 21.9128-22.4284 21.9128v1.0312c12.9453 0 23.4596-10.2614 23.4596-22.944zm-22.4284 21.9128c-12.3981 0-22.4285-9.8217-22.4285-21.9128h-1.0312c0 12.6826 10.5143 22.944 23.4597 22.944zm0-44.8569h-47.692768l-.000001 1.03119h47.692769z" fill="#5b57ca"/></svg>

<svg width="72" height="50" viewBox="0 0 72 50" fill="none" xmlns="http://www.w3.org/2000/svg">
<path d="M25.8682 26.9866C25.8682 26.7018 25.6373 26.471 25.3526 26.471C25.0678 26.471 24.837 26.7018 24.837 26.9866L25.8682 26.9866ZM48.2967 4.5581L48.2967 4.0425L48.2967 4.5581ZM0.239346 4.19351C0.0379983 4.39486 0.0379983 4.72132 0.239346 4.92268L3.52059 8.20392C3.72194 8.40527 4.0484 8.40527 4.24975 8.20392C4.45111 8.00256 4.45111 7.6761 4.24975 7.47475L1.3331 4.5581L4.24975 1.64144C4.45111 1.44008 4.45111 1.11363 4.24975 0.912271C4.0484 0.71092 3.72194 0.71092 3.52059 0.912271L0.239346 4.19351ZM48.2967 5.07369C60.6947 5.07369 70.7251 14.8954 70.7251 26.9866L71.7563 26.9866C71.7563 14.3039 61.242 4.0425 48.2967 4.0425L48.2967 5.07369ZM70.7251 26.9866C70.7251 39.0777 60.6947 48.8994 48.2967 48.8994L48.2967 49.9306C61.242 49.9306 71.7563 39.6692 71.7563 26.9866L70.7251 26.9866ZM48.2967 48.8994C35.8986 48.8994 25.8682 39.0777 25.8682 26.9866L24.837 26.9866C24.837 39.6692 35.3513 49.9306 48.2967 49.9306L48.2967 48.8994ZM48.2967 4.0425L0.603932 4.0425L0.603931 5.07369L48.2967 5.07369L48.2967 4.0425Z" fill="#5B57CA"/>
</svg>
